localPackages/DesignSystem/Sources/DesignSystem/Resources/Assets.xcassets/IconSet/ic-user-arrow-right.imageset/ic-user-arrow-right.svg

<svg width="24" height="24" viewBox="0 0 24 24" fill="none" xmlns="http://www.w3.org/2000/svg">
<g id="ic-user-arrow-right">
<path id="Icon" fill-rule="evenodd" clip-rule="evenodd" d="M12 10.5C13.6569 10.5 15 9.15685 15 7.5C15 5.84315 13.6569 4.5 12 4.5C10.3431 4.5 9 5.84315 9 7.5C9 9.15685 10.3431 10.5 12 10.5ZM12 12C14.4853 12 16.5 9.98528 16.5 7.5C16.5 5.01472 14.4853 3 12 3C9.51472 3 7.5 5.01472 7.5 7.5C7.5 9.98528 9.51472 12 12 12ZM8.25409 15C7.54588 15 6.87901 15.3334 6.45409 15.9L4.65409 18.3C4.28326 18.7944 4.63605 19.5 5.25409 19.5H13.5V21H5.25409C3.39998 21 2.34162 18.8833 3.45409 17.4L5.25409 15C5.96229 14.0557 7.07375 13.5 8.25409 13.5H13.5V15H8.25409ZM18.2961 20.7763C18.5868 21.0714 19.0616 21.075 19.3568 20.7843L22.1857 17.9981C22.6033 17.5868 22.6033 16.9132 22.1857 16.5019L19.3568 13.7157C19.0616 13.425 18.5868 13.4286 18.2961 13.7237C18.0055 14.0188 18.0091 14.4937 18.3042 14.7843L20.0461 16.5H14.2615C13.8473 16.5 13.5115 16.8358 13.5115 17.25C13.5115 17.6642 13.8473 18 14.2615 18H20.0461L18.3042 19.7157C18.0091 20.0063 18.0055 20.4812 18.2961 20.7763Z" fill="#0F0F0F"/>
</g>
</svg>

<svg xmlns="http://www.w3.org/2000/svg" width="24" height="24" viewBox="0 0 24 24">
  <g class="ic-user-arrow-right">
    <path fill-rule="evenodd" d="M12 10.5a3 3 0 1 0 0-6 3 3 0 0 0 0 6Zm0 1.5a4.5 4.5 0 1 0 0-9 4.5 4.5 0 0 0 0 9Zm-3.746 3a2.25 2.25 0 0 0-1.8.9l-1.8 2.4a.75.75 0 0 0 .6 1.2H13.5V21H5.254c-1.854 0-2.912-2.117-1.8-3.6l1.8-2.4a3.75 3.75 0 0 1 3-1.5H13.5V15H8.254Zm10.042 5.776a.75.75 0 0 0 1.06.008l2.83-2.786a1.05 1.05 0 0 0 0-1.496l-2.83-2.786a.75.75 0 0 0-1.052 1.068l1.742 1.716h-5.784a.75.75 0 0 0 0 1.5h5.784l-1.742 1.716a.75.75 0 0 0-.008 1.06Z" class="Icon"/>
  </g>
</svg>
